X: 1022
T: A Theater Jigg.
%R: jig
B: Henry Playford "Apollo's Banquet", London 1687 (5th Edition)
F: https://archive.org/details/apollosbanquetco01rugg
Z: 2017 John Chambers <jc:trillian.mit.edu>
N: The 2nd strain has a long pickup note; transcribed as-is.
M: 6/4
L: 1/8
K: Bb
% - - - - - - - - - -
F2 |\
B3AB2 c3de2 | d3ef2 g3ab2 | a6 f4b2 |\
g3ag2 f3ed2 | e3fd2 c4B2 | B6- B4 :|
|: c6 |\
d3ed2 g4c2 | f4d2 B3AG2 | c2B4 A4b2 |\
a3(g/a/)b2 g4f2 | e3fd2 c4B2 | B6- B4 |]
% - - - - - - - - - -

%%sep 1 1 500
%%sep 1 1 500

